src/components/common/images/logo.svg

<svg width="82" height="39" viewBox="0 0 82 39" fill="none" xmlns="http://www.w3.org/2000/svg">
<mask id="path-1-outside-1_427_2492" maskUnits="userSpaceOnUse" x="0" y="0" width="82" height="39" fill="black">
<rect fill="white" width="82" height="39"/>
<path d="M21.3437 29.9896H16.1988V9.47388H21.3437V29.9896Z"/>
<path d="M18.8831 6.79791C18.1076 6.79791 17.4216 6.51545 16.8251 5.95053C16.2584 5.35587 15.9751 4.67201 15.9751 3.89896C15.9751 3.1259 16.2584 2.45691 16.8251 1.89199C17.4216 1.29733 18.1076 1 18.8831 1C19.6585 1 20.3296 1.29733 20.8963 1.89199C21.4928 2.45691 21.791 3.1259 21.791 3.89896C21.791 4.67201 21.4928 5.35587 20.8963 5.95053C20.3296 6.51545 19.6585 6.79791 18.8831 6.79791Z"/>
<path d="M75.4077 29.9896H80.5526V9.47388H75.4077V29.9896Z"/>
<path d="M76.0341 5.95053C76.6306 6.51545 77.3166 6.79791 78.092 6.79791C78.8675 6.79791 79.5386 6.51545 80.1052 5.95053C80.7018 5.35587 81 4.67201 81 3.89896C81 3.1259 80.7018 2.45691 80.1052 1.89199C79.5386 1.29733 78.8675 1 78.092 1C77.3166 1 76.6306 1.29733 76.0341 1.89199C75.4674 2.45691 75.184 3.1259 75.184 3.89896C75.184 4.67201 75.4674 5.35587 76.0341 5.95053Z"/>
<path d="M67.4682 29.9896H72.6131V1.89198H67.4682V29.9896Z"/>
<path fill-rule="evenodd" clip-rule="evenodd" d="M53.9706 9.25087C54.8654 9.25087 55.6706 9.36981 56.3864 9.60767C57.1023 9.84553 57.7137 10.0983 58.2207 10.3659C58.7874 10.6929 59.3093 11.0646 59.7866 11.4808L60.6813 9.47387H64.4841V28.6516C64.4841 31.3275 63.6191 33.4832 61.8892 35.1185C60.1892 36.7538 57.7733 37.5715 54.6417 37.5715C52.7328 37.5715 51.1819 37.2295 49.9889 36.5457C48.8257 35.8618 47.9011 35.0888 47.2151 34.2265C46.4397 33.2453 45.8581 32.1303 45.4703 30.8816H50.6152C50.824 31.2681 51.1073 31.61 51.4652 31.9073C51.7933 32.1452 52.2109 32.3682 52.7179 32.5763C53.2249 32.7845 53.8662 32.8885 54.6417 32.8885C56.1031 32.8885 57.2514 32.4871 58.0865 31.6843C58.9216 30.9113 59.3392 29.9004 59.3392 28.6516V27.0906C58.9216 27.5069 58.4444 27.8785 57.9075 28.2056C57.4303 28.5029 56.8637 28.7705 56.2075 29.0084C55.5513 29.2165 54.8057 29.3206 53.9706 29.3206C52.6881 29.3206 51.4652 29.0678 50.302 28.5624C49.1687 28.0569 48.1695 27.3582 47.3046 26.4662C46.4695 25.5742 45.7984 24.5187 45.2914 23.2997C44.8142 22.0806 44.5756 20.7426 44.5756 19.2857C44.5756 17.8288 44.8142 16.4908 45.2914 15.2718C45.7984 14.0527 46.4695 12.9972 47.3046 12.1052C48.1695 11.2132 49.1687 10.5145 50.302 10.0091C51.4652 9.50361 52.6881 9.25087 53.9706 9.25087ZM49.7205 19.2857C49.7205 19.9993 49.8398 20.6683 50.0784 21.2927C50.3468 21.9171 50.7047 22.4671 51.1521 22.9429C51.5995 23.3889 52.1214 23.7457 52.7179 24.0133C53.3144 24.2809 53.9557 24.4146 54.6417 24.4146C55.2978 24.4146 55.9242 24.2809 56.5207 24.0133C57.1172 23.7457 57.6391 23.3889 58.0865 22.9429C58.5339 22.4671 58.8918 21.9171 59.1602 21.2927C59.4286 20.6683 59.5629 19.9993 59.5629 19.2857C59.5629 18.5721 59.4286 17.9031 59.1602 17.2788C58.8918 16.6544 58.5339 16.1192 58.0865 15.6732C57.6391 15.1975 57.1172 14.8258 56.5207 14.5582C55.9242 14.2906 55.2978 14.1568 54.6417 14.1568C53.9557 14.1568 53.3144 14.2906 52.7179 14.5582C52.1214 14.8258 51.5995 15.1975 51.1521 15.6732C50.7047 16.1192 50.3468 16.6544 50.0784 17.2788C49.8398 17.9031 49.7205 18.5721 49.7205 19.2857Z"/>
<path d="M37.8474 9.87527C36.8333 9.45901 35.7148 9.25087 34.492 9.25087C33.6271 9.25087 32.8367 9.36981 32.1209 9.60767C31.4349 9.84553 30.8384 10.0983 30.3313 10.3659C29.7348 10.6929 29.1831 11.0646 28.676 11.4808L27.7813 9.47387H23.9785V29.9896H29.1234V18.6167C29.1234 17.2788 29.5111 16.2084 30.2866 15.4056C31.0919 14.5731 32.1209 14.1568 33.3735 14.1568C34.6262 14.1568 35.6403 14.5731 36.4157 15.4056C37.221 16.2084 37.6237 17.2788 37.6237 18.6167V29.9896H42.7686V17.9477C42.7686 16.6098 42.5598 15.4056 42.1422 14.3352C41.7545 13.2648 41.1878 12.358 40.4422 11.6146C39.7264 10.8416 38.8614 10.2618 37.8474 9.87527Z"/>
<path d="M9.27657 4.56795H4.80275V7.4669C4.80275 9.10221 3.98255 9.91987 2.34215 9.91987H1V14.1568H4.13167V22.8537C4.13167 23.9835 4.29571 24.9944 4.62379 25.8864C4.9817 26.7784 5.45891 27.5515 6.05542 28.2056C6.68175 28.8597 7.41248 29.3652 8.24759 29.722C9.11253 30.049 10.052 30.2126 11.0661 30.2126C11.7223 30.2126 12.3039 30.1382 12.8109 29.9896C13.0793 29.9301 13.3179 29.8558 13.5267 29.7666V25.3066C13.4074 25.3661 13.2881 25.4107 13.1688 25.4404C13.0495 25.4702 12.9153 25.4999 12.7661 25.5296H12.1846C11.2898 25.5296 10.574 25.2769 10.0371 24.7714C9.53009 24.2363 9.27657 23.5227 9.27657 22.6307V14.1568H13.7504V9.47387H9.27657V4.56795Z"/>
</mask>
<path d="M21.3437 29.9896H16.1988V9.47388H21.3437V29.9896Z" fill="black"/>
<path d="M18.8831 6.79791C18.1076 6.79791 17.4216 6.51545 16.8251 5.95053C16.2584 5.35587 15.9751 4.67201 15.9751 3.89896C15.9751 3.1259 16.2584 2.45691 16.8251 1.89199C17.4216 1.29733 18.1076 1 18.8831 1C19.6585 1 20.3296 1.29733 20.8963 1.89199C21.4928 2.45691 21.791 3.1259 21.791 3.89896C21.791 4.67201 21.4928 5.35587 20.8963 5.95053C20.3296 6.51545 19.6585 6.79791 18.8831 6.79791Z" fill="black"/>
<path d="M75.4077 29.9896H80.5526V9.47388H75.4077V29.9896Z" fill="black"/>
<path d="M76.0341 5.95053C76.6306 6.51545 77.3166 6.79791 78.092 6.79791C78.8675 6.79791 79.5386 6.51545 80.1052 5.95053C80.7018 5.35587 81 4.67201 81 3.89896C81 3.1259 80.7018 2.45691 80.1052 1.89199C79.5386 1.29733 78.8675 1 78.092 1C77.3166 1 76.6306 1.29733 76.0341 1.89199C75.4674 2.45691 75.184 3.1259 75.184 3.89896C75.184 4.67201 75.4674 5.35587 76.0341 5.95053Z" fill="black"/>
<path d="M67.4682 29.9896H72.6131V1.89198H67.4682V29.9896Z" fill="black"/>
<path fill-rule="evenodd" clip-rule="evenodd" d="M53.9706 9.25087C54.8654 9.25087 55.6706 9.36981 56.3864 9.60767C57.1023 9.84553 57.7137 10.0983 58.2207 10.3659C58.7874 10.6929 59.3093 11.0646 59.7866 11.4808L60.6813 9.47387H64.4841V28.6516C64.4841 31.3275 63.6191 33.4832 61.8892 35.1185C60.1892 36.7538 57.7733 37.5715 54.6417 37.5715C52.7328 37.5715 51.1819 37.2295 49.9889 36.5457C48.8257 35.8618 47.9011 35.0888 47.2151 34.2265C46.4397 33.2453 45.8581 32.1303 45.4703 30.8816H50.6152C50.824 31.2681 51.1073 31.61 51.4652 31.9073C51.7933 32.1452 52.2109 32.3682 52.7179 32.5763C53.2249 32.7845 53.8662 32.8885 54.6417 32.8885C56.1031 32.8885 57.2514 32.4871 58.0865 31.6843C58.9216 30.9113 59.3392 29.9004 59.3392 28.6516V27.0906C58.9216 27.5069 58.4444 27.8785 57.9075 28.2056C57.4303 28.5029 56.8637 28.7705 56.2075 29.0084C55.5513 29.2165 54.8057 29.3206 53.9706 29.3206C52.6881 29.3206 51.4652 29.0678 50.302 28.5624C49.1687 28.0569 48.1695 27.3582 47.3046 26.4662C46.4695 25.5742 45.7984 24.5187 45.2914 23.2997C44.8142 22.0806 44.5756 20.7426 44.5756 19.2857C44.5756 17.8288 44.8142 16.4908 45.2914 15.2718C45.7984 14.0527 46.4695 12.9972 47.3046 12.1052C48.1695 11.2132 49.1687 10.5145 50.302 10.0091C51.4652 9.50361 52.6881 9.25087 53.9706 9.25087ZM49.7205 19.2857C49.7205 19.9993 49.8398 20.6683 50.0784 21.2927C50.3468 21.9171 50.7047 22.4671 51.1521 22.9429C51.5995 23.3889 52.1214 23.7457 52.7179 24.0133C53.3144 24.2809 53.9557 24.4146 54.6417 24.4146C55.2978 24.4146 55.9242 24.2809 56.5207 24.0133C57.1172 23.7457 57.6391 23.3889 58.0865 22.9429C58.5339 22.4671 58.8918 21.9171 59.1602 21.2927C59.4286 20.6683 59.5629 19.9993 59.5629 19.2857C59.5629 18.5721 59.4286 17.9031 59.1602 17.2788C58.8918 16.6544 58.5339 16.1192 58.0865 15.6732C57.6391 15.1975 57.1172 14.8258 56.5207 14.5582C55.9242 14.2906 55.2978 14.1568 54.6417 14.1568C53.9557 14.1568 53.3144 14.2906 52.7179 14.5582C52.1214 14.8258 51.5995 15.1975 51.1521 15.6732C50.7047 16.1192 50.3468 16.6544 50.0784 17.2788C49.8398 17.9031 49.7205 18.5721 49.7205 19.2857Z" fill="black"/>
<path d="M37.8474 9.87527C36.8333 9.45901 35.7148 9.25087 34.492 9.25087C33.6271 9.25087 32.8367 9.36981 32.1209 9.60767C31.4349 9.84553 30.8384 10.0983 30.3313 10.3659C29.7348 10.6929 29.1831 11.0646 28.676 11.4808L27.7813 9.47387H23.9785V29.9896H29.1234V18.6167C29.1234 17.2788 29.5111 16.2084 30.2866 15.4056C31.0919 14.5731 32.1209 14.1568 33.3735 14.1568C34.6262 14.1568 35.6403 14.5731 36.4157 15.4056C37.221 16.2084 37.6237 17.2788 37.6237 18.6167V29.9896H42.7686V17.9477C42.7686 16.6098 42.5598 15.4056 42.1422 14.3352C41.7545 13.2648 41.1878 12.358 40.4422 11.6146C39.7264 10.8416 38.8614 10.2618 37.8474 9.87527Z" fill="black"/>
<path d="M9.27657 4.56795H4.80275V7.4669C4.80275 9.10221 3.98255 9.91987 2.34215 9.91987H1V14.1568H4.13167V22.8537C4.13167 23.9835 4.29571 24.9944 4.62379 25.8864C4.9817 26.7784 5.45891 27.5515 6.05542 28.2056C6.68175 28.8597 7.41248 29.3652 8.24759 29.722C9.11253 30.049 10.052 30.2126 11.0661 30.2126C11.7223 30.2126 12.3039 30.1382 12.8109 29.9896C13.0793 29.9301 13.3179 29.8558 13.5267 29.7666V25.3066C13.4074 25.3661 13.2881 25.4107 13.1688 25.4404C13.0495 25.4702 12.9153 25.4999 12.7661 25.5296H12.1846C11.2898 25.5296 10.574 25.2769 10.0371 24.7714C9.53009 24.2363 9.27657 23.5227 9.27657 22.6307V14.1568H13.7504V9.47387H9.27657V4.56795Z" fill="black"/>
<path d="M21.3437 29.9896H16.1988V9.47388H21.3437V29.9896Z" stroke="black" mask="url(#path-1-outside-1_427_2492)"/>
<path d="M18.8831 6.79791C18.1076 6.79791 17.4216 6.51545 16.8251 5.95053C16.2584 5.35587 15.9751 4.67201 15.9751 3.89896C15.9751 3.1259 16.2584 2.45691 16.8251 1.89199C17.4216 1.29733 18.1076 1 18.8831 1C19.6585 1 20.3296 1.29733 20.8963 1.89199C21.4928 2.45691 21.791 3.1259 21.791 3.89896C21.791 4.67201 21.4928 5.35587 20.8963 5.95053C20.3296 6.51545 19.6585 6.79791 18.8831 6.79791Z" stroke="black" mask="url(#path-1-outside-1_427_2492)"/>
<path d="M75.4077 29.9896H80.5526V9.47388H75.4077V29.9896Z" stroke="black" mask="url(#path-1-outside-1_427_2492)"/>
<path d="M76.0341 5.95053C76.6306 6.51545 77.3166 6.79791 78.092 6.79791C78.8675 6.79791 79.5386 6.51545 80.1052 5.95053C80.7018 5.35587 81 4.67201 81 3.89896C81 3.1259 80.7018 2.45691 80.1052 1.89199C79.5386 1.29733 78.8675 1 78.092 1C77.3166 1 76.6306 1.29733 76.0341 1.89199C75.4674 2.45691 75.184 3.1259 75.184 3.89896C75.184 4.67201 75.4674 5.35587 76.0341 5.95053Z" stroke="black" mask="url(#path-1-outside-1_427_2492)"/>
<path d="M67.4682 29.9896H72.6131V1.89198H67.4682V29.9896Z" stroke="black" mask="url(#path-1-outside-1_427_2492)"/>
<path fill-rule="evenodd" clip-rule="evenodd" d="M53.9706 9.25087C54.8654 9.25087 55.6706 9.36981 56.3864 9.60767C57.1023 9.84553 57.7137 10.0983 58.2207 10.3659C58.7874 10.6929 59.3093 11.0646 59.7866 11.4808L60.6813 9.47387H64.4841V28.6516C64.4841 31.3275 63.6191 33.4832 61.8892 35.1185C60.1892 36.7538 57.7733 37.5715 54.6417 37.5715C52.7328 37.5715 51.1819 37.2295 49.9889 36.5457C48.8257 35.8618 47.9011 35.0888 47.2151 34.2265C46.4397 33.2453 45.8581 32.1303 45.4703 30.8816H50.6152C50.824 31.2681 51.1073 31.61 51.4652 31.9073C51.7933 32.1452 52.2109 32.3682 52.7179 32.5763C53.2249 32.7845 53.8662 32.8885 54.6417 32.8885C56.1031 32.8885 57.2514 32.4871 58.0865 31.6843C58.9216 30.9113 59.3392 29.9004 59.3392 28.6516V27.0906C58.9216 27.5069 58.4444 27.8785 57.9075 28.2056C57.4303 28.5029 56.8637 28.7705 56.2075 29.0084C55.5513 29.2165 54.8057 29.3206 53.9706 29.3206C52.6881 29.3206 51.4652 29.0678 50.302 28.5624C49.1687 28.0569 48.1695 27.3582 47.3046 26.4662C46.4695 25.5742 45.7984 24.5187 45.2914 23.2997C44.8142 22.0806 44.5756 20.7426 44.5756 19.2857C44.5756 17.8288 44.8142 16.4908 45.2914 15.2718C45.7984 14.0527 46.4695 12.9972 47.3046 12.1052C48.1695 11.2132 49.1687 10.5145 50.302 10.0091C51.4652 9.50361 52.6881 9.25087 53.9706 9.25087ZM49.7205 19.2857C49.7205 19.9993 49.8398 20.6683 50.0784 21.2927C50.3468 21.9171 50.7047 22.4671 51.1521 22.9429C51.5995 23.3889 52.1214 23.7457 52.7179 24.0133C53.3144 24.2809 53.9557 24.4146 54.6417 24.4146C55.2978 24.4146 55.9242 24.2809 56.5207 24.0133C57.1172 23.7457 57.6391 23.3889 58.0865 22.9429C58.5339 22.4671 58.8918 21.9171 59.1602 21.2927C59.4286 20.6683 59.5629 19.9993 59.5629 19.2857C59.5629 18.5721 59.4286 17.9031 59.1602 17.2788C58.8918 16.6544 58.5339 16.1192 58.0865 15.6732C57.6391 15.1975 57.1172 14.8258 56.5207 14.5582C55.9242 14.2906 55.2978 14.1568 54.6417 14.1568C53.9557 14.1568 53.3144 14.2906 52.7179 14.5582C52.1214 14.8258 51.5995 15.1975 51.1521 15.6732C50.7047 16.1192 50.3468 16.6544 50.0784 17.2788C49.8398 17.9031 49.7205 18.5721 49.7205 19.2857Z" stroke="black" mask="url(#path-1-outside-1_427_2492)"/>
<path d="M37.8474 9.87527C36.8333 9.45901 35.7148 9.25087 34.492 9.25087C33.6271 9.25087 32.8367 9.36981 32.1209 9.60767C31.4349 9.84553 30.8384 10.0983 30.3313 10.3659C29.7348 10.6929 29.1831 11.0646 28.676 11.4808L27.7813 9.47387H23.9785V29.9896H29.1234V18.6167C29.1234 17.2788 29.5111 16.2084 30.2866 15.4056C31.0919 14.5731 32.1209 14.1568 33.3735 14.1568C34.6262 14.1568 35.6403 14.5731 36.4157 15.4056C37.221 16.2084 37.6237 17.2788 37.6237 18.6167V29.9896H42.7686V17.9477C42.7686 16.6098 42.5598 15.4056 42.1422 14.3352C41.7545 13.2648 41.1878 12.358 40.4422 11.6146C39.7264 10.8416 38.8614 10.2618 37.8474 9.87527Z" stroke="black" mask="url(#path-1-outside-1_427_2492)"/>
<path d="M9.27657 4.56795H4.80275V7.4669C4.80275 9.10221 3.98255 9.91987 2.34215 9.91987H1V14.1568H4.13167V22.8537C4.13167 23.9835 4.29571 24.9944 4.62379 25.8864C4.9817 26.7784 5.45891 27.5515 6.05542 28.2056C6.68175 28.8597 7.41248 29.3652 8.24759 29.722C9.11253 30.049 10.052 30.2126 11.0661 30.2126C11.7223 30.2126 12.3039 30.1382 12.8109 29.9896C13.0793 29.9301 13.3179 29.8558 13.5267 29.7666V25.3066C13.4074 25.3661 13.2881 25.4107 13.1688 25.4404C13.0495 25.4702 12.9153 25.4999 12.7661 25.5296H12.1846C11.2898 25.5296 10.574 25.2769 10.0371 24.7714C9.53009 24.2363 9.27657 23.5227 9.27657 22.6307V14.1568H13.7504V9.47387H9.27657V4.56795Z" stroke="black" mask="url(#path-1-outside-1_427_2492)"/>
</svg>

<svg width="82" height="39" fill="none" xmlns="http://www.w3.org/2000/svg"><mask id="a" maskUnits="userSpaceOnUse" x="0" y="0" width="82" height="39" fill="#000"><path fill="#fff" d="M0 0h82v39H0z"/><path d="M21.344 29.99h-5.145V9.474h5.145V29.99zM18.883 6.798c-.775 0-1.461-.283-2.058-.847-.567-.595-.85-1.279-.85-2.052 0-.773.283-1.442.85-2.007.597-.595 1.283-.892 2.058-.892.776 0 1.447.297 2.013.892.597.565.895 1.234.895 2.007 0 .773-.298 1.457-.895 2.052-.566.564-1.238.847-2.013.847zM75.408 29.99h5.145V9.474h-5.145V29.99zM76.034 5.95c.597.565 1.283.848 2.058.848.776 0 1.447-.283 2.013-.847.597-.595.895-1.279.895-2.052 0-.773-.298-1.442-.895-2.007C79.54 1.297 78.868 1 78.092 1c-.775 0-1.461.297-2.058.892-.567.565-.85 1.234-.85 2.007 0 .773.283 1.457.85 2.052zM67.468 29.99h5.145V1.892h-5.145V29.99z"/><path fill-rule="evenodd" clip-rule="evenodd" d="M53.97 9.25c.895 0 1.7.12 2.416.358s1.328.49 1.835.758a9.914 9.914 0 0 1 1.566 1.115l.894-2.007h3.803v19.178c0 2.675-.865 4.831-2.595 6.466-1.7 1.636-4.116 2.453-7.247 2.453-1.91 0-3.46-.341-4.653-1.025-1.163-.684-2.088-1.457-2.774-2.32a10.237 10.237 0 0 1-1.745-3.344h5.145c.209.386.492.728.85 1.025.328.238.746.461 1.253.67.507.208 1.148.312 1.924.312 1.461 0 2.61-.402 3.444-1.205.836-.773 1.253-1.784 1.253-3.032V27.09a7.665 7.665 0 0 1-1.431 1.115 9.05 9.05 0 0 1-1.7.802c-.657.209-1.402.313-2.237.313a9.109 9.109 0 0 1-3.669-.759 9.565 9.565 0 0 1-2.997-2.096c-.836-.892-1.507-1.947-2.014-3.166-.477-1.22-.715-2.557-.715-4.014 0-1.457.238-2.795.715-4.014.507-1.22 1.178-2.275 2.014-3.167a9.563 9.563 0 0 1 2.997-2.096 9.107 9.107 0 0 1 3.669-.758zm-4.25 10.036c0 .713.12 1.382.358 2.007a5.634 5.634 0 0 0 1.074 1.65c.447.446.97.803 1.566 1.07a4.646 4.646 0 0 0 1.924.402 4.54 4.54 0 0 0 1.879-.402 5.225 5.225 0 0 0 1.566-1.07 5.634 5.634 0 0 0 1.073-1.65 5.028 5.028 0 0 0 .403-2.007c0-.714-.134-1.383-.403-2.007a5.06 5.06 0 0 0-1.073-1.606 4.86 4.86 0 0 0-1.566-1.115 4.54 4.54 0 0 0-1.88-.401c-.685 0-1.327.134-1.923.401a4.86 4.86 0 0 0-1.566 1.115 5.06 5.06 0 0 0-1.074 1.606 5.574 5.574 0 0 0-.358 2.007z"/><path d="M37.847 9.875c-1.014-.416-2.132-.624-3.355-.624-.865 0-1.655.119-2.371.357-.686.238-1.283.49-1.79.758-.596.327-1.148.699-1.655 1.115l-.895-2.007H23.98V29.99h5.144V18.617c0-1.338.388-2.409 1.164-3.211.805-.833 1.834-1.25 3.087-1.25 1.252 0 2.266.417 3.042 1.25.805.802 1.208 1.873 1.208 3.21V29.99h5.145V17.948c0-1.338-.21-2.542-.627-3.613-.388-1.07-.954-1.977-1.7-2.72a6.77 6.77 0 0 0-2.595-1.74zM9.277 4.568H4.803v2.899c0 1.635-.82 2.453-2.46 2.453H1v4.237h3.132v8.697c0 1.13.164 2.14.492 3.032a7.607 7.607 0 0 0 1.431 2.32 6.588 6.588 0 0 0 2.193 1.516c.865.327 1.804.49 2.818.49.656 0 1.238-.074 1.745-.222.268-.06.507-.134.716-.223v-4.46c-.12.06-.239.104-.358.133-.12.03-.254.06-.403.09h-.581c-.895 0-1.611-.253-2.148-.759-.507-.535-.76-1.248-.76-2.14v-8.474h4.473V9.474H9.277V4.568z"/></mask><path d="M21.344 29.99h-5.145V9.474h5.145V29.99zM18.883 6.798c-.775 0-1.461-.283-2.058-.847-.567-.595-.85-1.279-.85-2.052 0-.773.283-1.442.85-2.007.597-.595 1.283-.892 2.058-.892.776 0 1.447.297 2.013.892.597.565.895 1.234.895 2.007 0 .773-.298 1.457-.895 2.052-.566.564-1.238.847-2.013.847zM75.408 29.99h5.145V9.474h-5.145V29.99zM76.034 5.95c.597.565 1.283.848 2.058.848.776 0 1.447-.283 2.013-.847.597-.595.895-1.279.895-2.052 0-.773-.298-1.442-.895-2.007C79.54 1.297 78.868 1 78.092 1c-.775 0-1.461.297-2.058.892-.567.565-.85 1.234-.85 2.007 0 .773.283 1.457.85 2.052zM67.468 29.99h5.145V1.892h-5.145V29.99z" fill="#000"/><path fill-rule="evenodd" clip-rule="evenodd" d="M53.97 9.25c.895 0 1.7.12 2.416.358s1.328.49 1.835.758a9.914 9.914 0 0 1 1.566 1.115l.894-2.007h3.803v19.178c0 2.675-.865 4.831-2.595 6.466-1.7 1.636-4.116 2.453-7.247 2.453-1.91 0-3.46-.341-4.653-1.025-1.163-.684-2.088-1.457-2.774-2.32a10.237 10.237 0 0 1-1.745-3.344h5.145c.209.386.492.728.85 1.025.328.238.746.461 1.253.67.507.208 1.148.312 1.924.312 1.461 0 2.61-.402 3.444-1.205.836-.773 1.253-1.784 1.253-3.032V27.09a7.665 7.665 0 0 1-1.431 1.115 9.05 9.05 0 0 1-1.7.802c-.657.209-1.402.313-2.237.313a9.109 9.109 0 0 1-3.669-.759 9.565 9.565 0 0 1-2.997-2.096c-.836-.892-1.507-1.947-2.014-3.166-.477-1.22-.715-2.557-.715-4.014 0-1.457.238-2.795.715-4.014.507-1.22 1.178-2.275 2.014-3.167a9.563 9.563 0 0 1 2.997-2.096 9.107 9.107 0 0 1 3.669-.758zm-4.25 10.036c0 .713.12 1.382.358 2.007a5.634 5.634 0 0 0 1.074 1.65c.447.446.97.803 1.566 1.07a4.646 4.646 0 0 0 1.924.402 4.54 4.54 0 0 0 1.879-.402 5.225 5.225 0 0 0 1.566-1.07 5.634 5.634 0 0 0 1.073-1.65 5.028 5.028 0 0 0 .403-2.007c0-.714-.134-1.383-.403-2.007a5.06 5.06 0 0 0-1.073-1.606 4.86 4.86 0 0 0-1.566-1.115 4.54 4.54 0 0 0-1.88-.401c-.685 0-1.327.134-1.923.401a4.86 4.86 0 0 0-1.566 1.115 5.06 5.06 0 0 0-1.074 1.606 5.574 5.574 0 0 0-.358 2.007z" fill="#000"/><path d="M37.847 9.875c-1.014-.416-2.132-.624-3.355-.624-.865 0-1.655.119-2.371.357-.686.238-1.283.49-1.79.758-.596.327-1.148.699-1.655 1.115l-.895-2.007H23.98V29.99h5.144V18.617c0-1.338.388-2.409 1.164-3.211.805-.833 1.834-1.25 3.087-1.25 1.252 0 2.266.417 3.042 1.25.805.802 1.208 1.873 1.208 3.21V29.99h5.145V17.948c0-1.338-.21-2.542-.627-3.613-.388-1.07-.954-1.977-1.7-2.72a6.77 6.77 0 0 0-2.595-1.74zM9.277 4.568H4.803v2.899c0 1.635-.82 2.453-2.46 2.453H1v4.237h3.132v8.697c0 1.13.164 2.14.492 3.032a7.607 7.607 0 0 0 1.431 2.32 6.588 6.588 0 0 0 2.193 1.516c.865.327 1.804.49 2.818.49.656 0 1.238-.074 1.745-.222.268-.06.507-.134.716-.223v-4.46c-.12.06-.239.104-.358.133-.12.03-.254.06-.403.09h-.581c-.895 0-1.611-.253-2.148-.759-.507-.535-.76-1.248-.76-2.14v-8.474h4.473V9.474H9.277V4.568z" fill="#000"/><path d="M21.344 29.99h-5.145V9.474h5.145V29.99zM18.883 6.798c-.775 0-1.461-.283-2.058-.847-.567-.595-.85-1.279-.85-2.052 0-.773.283-1.442.85-2.007.597-.595 1.283-.892 2.058-.892.776 0 1.447.297 2.013.892.597.565.895 1.234.895 2.007 0 .773-.298 1.457-.895 2.052-.566.564-1.238.847-2.013.847zM75.408 29.99h5.145V9.474h-5.145V29.99zM76.034 5.95c.597.565 1.283.848 2.058.848.776 0 1.447-.283 2.013-.847.597-.595.895-1.279.895-2.052 0-.773-.298-1.442-.895-2.007C79.54 1.297 78.868 1 78.092 1c-.775 0-1.461.297-2.058.892-.567.565-.85 1.234-.85 2.007 0 .773.283 1.457.85 2.052zM67.468 29.99h5.145V1.892h-5.145V29.99z" stroke="#000" mask="url(#a)"/><path clip-rule="evenodd" d="M53.97 9.25c.895 0 1.7.12 2.416.358s1.328.49 1.835.758a9.914 9.914 0 0 1 1.566 1.115l.894-2.007h3.803v19.178c0 2.675-.865 4.831-2.595 6.466-1.7 1.636-4.116 2.453-7.247 2.453-1.91 0-3.46-.341-4.653-1.025-1.163-.684-2.088-1.457-2.774-2.32a10.237 10.237 0 0 1-1.745-3.344h5.145c.209.386.492.728.85 1.025.328.238.746.461 1.253.67.507.208 1.148.312 1.924.312 1.461 0 2.61-.402 3.444-1.205.836-.773 1.253-1.784 1.253-3.032V27.09a7.665 7.665 0 0 1-1.431 1.115 9.05 9.05 0 0 1-1.7.802c-.657.209-1.402.313-2.237.313a9.109 9.109 0 0 1-3.669-.759 9.565 9.565 0 0 1-2.997-2.096c-.836-.892-1.507-1.947-2.014-3.166-.477-1.22-.715-2.557-.715-4.014 0-1.457.238-2.795.715-4.014.507-1.22 1.178-2.275 2.014-3.167a9.563 9.563 0 0 1 2.997-2.096 9.107 9.107 0 0 1 3.669-.758zm-4.25 10.036c0 .713.12 1.382.358 2.007a5.634 5.634 0 0 0 1.074 1.65c.447.446.97.803 1.566 1.07a4.646 4.646 0 0 0 1.924.402 4.54 4.54 0 0 0 1.879-.402 5.225 5.225 0 0 0 1.566-1.07 5.634 5.634 0 0 0 1.073-1.65 5.028 5.028 0 0 0 .403-2.007c0-.714-.134-1.383-.403-2.007a5.06 5.06 0 0 0-1.073-1.606 4.86 4.86 0 0 0-1.566-1.115 4.54 4.54 0 0 0-1.88-.401c-.685 0-1.327.134-1.923.401a4.86 4.86 0 0 0-1.566 1.115 5.06 5.06 0 0 0-1.074 1.606 5.574 5.574 0 0 0-.358 2.007z" stroke="#000" mask="url(#a)"/><path d="M37.847 9.875c-1.014-.416-2.132-.624-3.355-.624-.865 0-1.655.119-2.371.357-.686.238-1.283.49-1.79.758-.596.327-1.148.699-1.655 1.115l-.895-2.007H23.98V29.99h5.144V18.617c0-1.338.388-2.409 1.164-3.211.805-.833 1.834-1.25 3.087-1.25 1.252 0 2.266.417 3.042 1.25.805.802 1.208 1.873 1.208 3.21V29.99h5.145V17.948c0-1.338-.21-2.542-.627-3.613-.388-1.07-.954-1.977-1.7-2.72a6.77 6.77 0 0 0-2.595-1.74zM9.277 4.568H4.803v2.899c0 1.635-.82 2.453-2.46 2.453H1v4.237h3.132v8.697c0 1.13.164 2.14.492 3.032a7.607 7.607 0 0 0 1.431 2.32 6.588 6.588 0 0 0 2.193 1.516c.865.327 1.804.49 2.818.49.656 0 1.238-.074 1.745-.222.268-.06.507-.134.716-.223v-4.46c-.12.06-.239.104-.358.133-.12.03-.254.06-.403.09h-.581c-.895 0-1.611-.253-2.148-.759-.507-.535-.76-1.248-.76-2.14v-8.474h4.473V9.474H9.277V4.568z" stroke="#000" mask="url(#a)"/></svg>
